assets/img/ig-icon.svg

<?xml version="1.0" encoding="UTF-8"?>
<svg width="21px" height="22px" viewBox="0 0 21 22" version="1.1" xmlns="http://www.w3.org/2000/svg" xmlns:xlink="http://www.w3.org/1999/xlink">
    <title>EF77F7B1-318C-447E-B2AE-345ADD6F65D3@svg</title>
    <g id="homepage" stroke="none" stroke-width="1" fill="none" fill-rule="evenodd">
        <g id="homepage-v3" transform="translate(-76.000000, -97.000000)" fill="#504E4E">
            <g id="header" transform="translate(0.000000, 31.000000)">
                <g id="ig-icon-header-desktop" transform="translate(76.000000, 66.000000)">
                    <path d="M19.0551712,15.4503462 C19.0099569,16.524777 18.8376907,17.1049593 18.6940738,17.4917475 C18.341115,18.4501935 17.6148921,19.2108541 16.6998381,19.5805502 C16.3306022,19.7309344 15.7726585,19.9114126 14.7508578,19.9585987 C13.6430267,20.0103053 13.3107432,20.023049 10.5082413,20.023049 C7.70578057,20.023049 7.36934553,20.0103053 6.26550154,19.9585987 C5.23971376,19.9114126 4.68579823,19.7309344 4.3165212,19.5805502 C3.86117271,19.4042482 3.44668145,19.1249203 3.11024641,18.7595724 C2.76148021,18.4028352 2.4947573,17.9730801 2.32647812,17.4961389 C2.18286126,17.1093077 2.0105539,16.524777 1.96550408,15.4547376 C1.91613835,14.2942869 1.90397161,13.9461603 1.90397161,11.0107633 C1.90397161,8.07536624 1.91613835,7.72297739 1.96550408,6.56696112 C2.0105539,5.4925303 2.18286126,4.91230494 2.32647812,4.52555979 C2.4947573,4.04844637 2.76148021,3.61442902 3.1143979,3.26191101 C3.45482001,2.89660625 3.86515979,2.61723529 4.32067269,2.4411485 C4.68994972,2.29072129 5.24805784,2.11024309 6.26965302,2.06288479 C7.3775252,2.01139339 7.70993206,1.99843444 10.5122695,1.99843444 C13.3189228,1.99843444 13.6511653,2.01139339 14.7550504,2.06288479 C15.7808382,2.11024309 16.3347126,2.29072129 16.7040307,2.4411485 C17.1593792,2.61723529 17.5738705,2.89660625 17.9102644,3.26191101 C18.2590717,3.61864821 18.5257535,4.04844637 18.6940738,4.52555979 C18.8376907,4.91230494 19.0099569,5.4967495 19.0551712,6.56696112 C19.1043725,7.7273688 19.1167036,8.07536624 19.1167036,11.0107633 C19.1167036,13.9461603 19.1043725,14.2899385 19.0551712,15.4503462 M20.9466472,6.46806837 C20.8974048,5.2991362 20.7169589,4.49546574 20.4584567,3.79912642 C20.1916927,3.05994935 19.781394,2.39813854 19.2438378,1.84800723 C18.7186128,1.28930837 18.0826129,0.85516186 17.3850394,0.58018231 C16.716403,0.309378902 15.9531044,0.120376205 14.8370937,0.0687987037 C13.7127389,0.0129159018 13.355793,0 10.5040898,0 C7.65238667,0 7.2954408,0.0129159018 6.17523747,0.0644503501 C5.05922674,0.115984798 4.2919822,0.30520276 3.62729178,0.575833956 C2.9214153,0.85516186 2.28960797,1.28496002 1.76438292,1.84800723 C1.23093711,2.39813854 0.816651367,3.06429771 0.553956637,3.79490722 C0.295413397,4.49546574 0.114926375,5.29474479 0.0657250622,6.46372001 C0.0123311561,7.64139194 0,8.01526425 0,11.0021957 C0,13.9891272 0.0123311561,14.3629564 0.061573573,15.53628 C0.110774886,16.7052122 0.291385219,17.5088826 0.54992846,18.2052219 C0.816651367,18.944399 1.23093711,19.6062098 1.76438292,20.1563842 C2.28960797,20.71504 2.9256079,21.1491865 3.6231403,21.424166 C4.2919822,21.6949695 5.05507525,21.8840152 6.1712504,21.9355496 C7.29128931,21.9872563 7.64839959,22 10.5000617,22 C13.3517648,22 13.7087518,21.9872563 14.828914,21.9355496 C15.9449659,21.8840152 16.7122104,21.6949695 17.3769008,21.424166 C18.7884894,20.8525513 19.9045001,19.6835761 20.450236,18.2052219 C20.7086559,17.5047065 20.8892662,16.7052122 20.9384264,15.53628 C20.9876688,14.3629564 21,13.9891272 21,11.0021957 C21,8.01526425 20.9958485,7.64139194 20.9466472,6.46806837" id="Fill-1"></path>
                    <path d="M10.4999791,15.0677505 C8.53011933,15.0677505 6.93231863,13.4700214 6.93231863,11.5000209 C6.93231863,9.52997863 8.53011933,7.93229145 10.4999791,7.93229145 C12.4700483,7.93229145 14.0676814,9.52997863 14.0676814,11.5000209 C14.0676814,13.4700214 12.4700483,15.0677505 10.4999791,15.0677505 M10.4999791,6 C7.46359208,6 5,8.46344325 5,11.5000209 C5,14.5365568 7.46359208,17 10.4999791,17 C13.5365755,17 16,14.5365568 16,11.5000209 C16,8.46344325 13.5365755,6 10.4999791,6" id="Fill-4"></path>
                    <path d="M15.4999266,3 C14.6716535,3 14,3.67145258 14,4.49997553 C14,5.32830269 14.6716535,6 15.4999266,6 C16.3284444,6 17,5.32830269 17,4.49997553 C17,3.67145258 16.3284444,3 15.4999266,3" id="Fill-6"></path>
                </g>
            </g>
        </g>
    </g>
</svg>

<svg width="21" height="22" xmlns="http://www.w3.org/2000/svg"><g fill="#504E4E" fill-rule="evenodd"><path d="M19.055 15.45c-.045 1.075-.217 1.655-.36 2.042A3.571 3.571 0 0 1 16.7 19.58c-.37.15-.927.33-1.95.378-1.107.051-1.44.064-4.242.064s-3.139-.013-4.242-.064c-1.026-.048-1.58-.228-1.95-.378a3.222 3.222 0 0 1-1.206-.821 3.44 3.44 0 0 1-.784-1.264c-.143-.387-.315-.971-.36-2.041-.05-1.16-.062-1.509-.062-4.444 0-2.936.012-3.288.062-4.444.045-1.074.217-1.655.36-2.041.169-.478.435-.912.788-1.264a3.25 3.25 0 0 1 1.207-.82c.369-.151.927-.332 1.949-.38 1.108-.05 1.44-.064 4.242-.064 2.807 0 3.14.013 4.243.065 1.026.047 1.58.228 1.949.378.455.176.87.456 1.206.82.35.358.616.787.784 1.265.144.386.316.97.361 2.041.05 1.16.062 1.508.062 4.444 0 2.935-.013 3.279-.062 4.44m1.892-8.983c-.05-1.169-.23-1.973-.489-2.669a5.4 5.4 0 0 0-1.214-1.951A5.152 5.152 0 0 0 17.385.58C16.716.31 15.953.12 14.837.07 13.713.013 13.356 0 10.504 0 7.652 0 7.295.013 6.175.064 5.06.116 4.292.305 3.627.576c-.706.28-1.337.709-1.863 1.272a5.447 5.447 0 0 0-1.21 1.947c-.259.7-.44 1.5-.488 2.669C.012 7.64 0 8.015 0 11.002s.012 3.361.062 4.534c.049 1.17.23 1.973.488 2.67.267.738.68 1.4 1.214 1.95a5.153 5.153 0 0 0 1.86 1.268c.668.271 1.431.46 2.547.512 1.12.051 1.477.064 4.33.064 2.85 0 3.208-.013 4.328-.064 1.116-.052 1.883-.241 2.548-.512 1.411-.571 2.528-1.74 3.073-3.219.259-.7.44-1.5.488-2.669.05-1.173.062-1.547.062-4.534s-.004-3.36-.053-4.534"/><path d="M10.5 15.068a3.568 3.568 0 1 1 .001-7.137 3.568 3.568 0 0 1-.001 7.137M10.5 6A5.501 5.501 0 0 0 5 11.5c0 3.037 2.464 5.5 5.5 5.5 3.037 0 5.5-2.463 5.5-5.5S13.537 6 10.5 6M15.5 3a1.5 1.5 0 1 0 0 3 1.5 1.5 0 0 0 0-3"/></g></svg>
